X: 3293
T: Belharbour, The
R: reel
M: 4/4
K: Gmajor
|:D ~G3 DGBd|~g3 d egdB|~A3 G AcBA|GBAF GFEF|
D ~G3 DGBd|~g3 d egdB|~G2 (3Bcd gedc|(3Bcd AF ~G3 z:|
|:dggf ~g2 Bd|g z af gbfg|eaag ~a3 g|eaag edBc|
dggf ~g2 Bd|g z af gedB|~G2 Bd gedc|(3Bcd AF ~G3 z:|

